X:230
T:The Cottage In The Grove
R:reel
M:4/4
L:1/8
S:De Dannan - The Mist Covered Mountain
K:Edor
F | EDB,A, B,EFA | B2eB dBAF | DEFD E2DB, | A,B,DF EDB,A, |
B,EE2 DEFA | Be (3eee dBAF | DEFA dBAF | EGFD E3 ::
A | Bee2 fedB | egfe dBAF | A3B d2fd | edef d2BA |
Bee2 fedB | egfe dBAF | DEFA dBAF | EGFD E3 :|
